X:593
T:Reel 593
M:4/4
K:Dmaj
L:1/8
FA|D2FA dAFA|GFEF GBAF|DFAc dABd| (3efg fd ecdc|dFAc dfed| (3cBA FA BAFE|DFAc d2ed|cABc d2|fg| (3fgf df bfgfdg|fgaf eAce| (3fga bf afdf| (3gfe  (3fed ecde| (3fga  (3fga gfeg|fdec dcBA| (3FGA Bc dedB|AFEF D2|
